public/avatar/hat/122.svg

<svg xmlns:xlink="http://www.w3.org/1999/xlink" height="92.9" width="100.7" xmlns="http://www.w3.org/2000/svg"><use height="22.35" transform="translate(22.3 42.05)" width="32.3" xlink:href="#a"/><defs><g id="a" fill-rule="evenodd"><path d="M.1 5.3q6.15 0 10.5 2.6 2.2 1.3 3.15 2.6Q6.3 8-.15 8q-4.3 0-9.5 1.35l-4.35 1.3Q-12.95 9.3-10.65 8-6.05 5.3.1 5.3" fill="#3a322a" transform="translate(16.35 7.7)"/><path d="M-9.4 7.65Q-4.6 5.05-.3 5q3.05-.05 7.2 2.2-3.95-.95-7.25-.9-4.45.05-9.05 1.35l-.75.4q-2.6 1.5-4.35 3.05l-.45.4-1-1.4-.1-.4.15-.35-.05-.25-.2-.15-.2-.6.2-.8q.6-.25.9-1.05 1.55-4.75 3.15-6.95 3.2-4.4 8.85-5.3l.55-.95q1-1 3.2-1 3.45 0 3.7 2.3 5.15 1.6 7.45 3.95 2.6 2.65 3.05 7.7l.2.35q.7.15.95 1.25l.05.2-.2.55v.15l.25.6v.2q-.3 1.55-1.75 1.45l-1.45-.45q-3.1-1.8-5.4-3.1L6.9 7.2q3 .7 6.35 1.95l.95.3V7.9l-.95-.45-.05-1.1q-.9-9.7-9.9-10.65l-.55-.05-.1-.6Q2.45-6.2.5-6.2q-1.9 0-2.15 1.2l-.15.55h-.6q-5.1 1.7-8.4 5.7-2.75 3.3-2.9 5.9l-.05.45-1.05.6.15.25.3.95q2.5-1.05 4.95-1.75" transform="translate(16.35 7.7)"/><path d="M3.45-4.8q0 2.2-2.95 2.2t-2.95-2.2q0-2.15 2.95-2.15T3.45-4.8" fill="#005094" transform="translate(16.35 7.7)"/><path d="M-8.9 6.15q-.95 5.1-4.45 5.75.35-4.85 4.45-5.75M9.55 5.2l3.1 2.3q3.05 2.95 2.65 6.05Q8.95 11 9.55 5.2" transform="translate(16.35 7.7)"/><path d="m7.1 5.85 1.95 2.1q1.8 2.5 1.15 4.7-4.25-2.7-3.1-6.8M-4.5 4.2q-1.2 6.75-5.85 7.7.45-6.5 5.85-7.7" transform="translate(16.35 7.7)"/><path d="M-11.8.5Q-8.05-5-1.4-5.15 3.55-5.25 7.95-3q6 3.15 6 9.3v1.85Q9.3 6.9 3.5 6.3-8.15 5.1-14.05 8.45l-.4-.9V7.3q.1-3.1 2.65-6.8" fill="#005094" transform="translate(16.35 7.7)"/><path d="M10.5.15q1.75 1.9 2.25 5.4l-1.5-1.15-2.15-.75-.25-1.25L6.25-3 10.5.15" fill="#00407a" transform="translate(16.35 7.7)"/><path d="M.8 6.3q-5.6-.15-14.85 2.15l-.4-.4v-.1q.1-1.75 2.05-3.25 3.35-2.55 11-2.25Q12.85 2.3 13.95 7.5v.85Q7.8 6.45.8 6.3" fill="#00407a" transform="translate(16.35 7.7)"/><path d="M-1.6-2.1Q-3 1.2-2.65 4.45l-.55.15q-.5-5.9 3.05-9.35L-1.6-2.1" fill="#006aac" transform="translate(16.35 7.7)"/><path d="M-5.1-4.5q1.55-.7 3.35-.65l1.55.2q-6 .2-7.9 5.45-.95 2.65-.7 5.25l-1.3.4q.05-8.55 5-10.65M.8-2.55.1-5.1q2 2.65 2.55 10l-.85-.55Q1.55.7.8-2.55M5.2-4.2q4.15 2.35 4.7 9.65l-1.4.05q.05-2.55-.85-5.15Q5.8-4.9 1.1-5.15h1.25q1.5.2 2.85.95" fill="#006aac" transform="translate(16.35 7.7)"/><path d="M-12.8 8.1q.15 5.15-3.15 6.55-.65-4.85 3.15-6.55" transform="translate(16.35 7.7)"/><path d="M9.75 4.85q3.45 1.3 4.95 2.45.3.2.45.75l-.85.55.9.8q-.2.9-.95.85Q6.6 7-.3 7.05q-4.75.05-10.1 1.7l-4.45 1.65-.4-.6.25-.75-.6-.6.2-.7q.1-.65 4.25-2.4Q-6.05 3.2-.8 3q5.15-.2 10.55 1.85" fill="#e8b837" transform="translate(16.35 7.7)"/><path d="M.05 5.85q-7.8-.25-15.05 4-.55-.8-.2-1.7l5.3-2q6.1-2 10.1-2 6.15 0 14.75 3.9v1.5Q8.3 6.1.05 5.85" fill="#006aac" transform="translate(16.35 7.7)"/><path d="m.2 4.75 1.65.2v1L.2 5.85l-7 .6-.85-.7q4.9-1.25 7.85-1m14.75 3.3v1.5q-1.8-1.15-4.5-2l.7-.6 3.8 1.1" fill="#1d7cb6" transform="translate(16.35 7.7)"/><path d="M-1.15-5.75q-.15-.45.55-.7.7-.25.85.25.15.45-.55.7-.7.25-.85-.25" fill="#006aac" transform="translate(16.35 7.7)"/><path d="m-9.65 4.9 2.6-.85.15 1.05-2.3.65-.45-.85m.75 2.4 2.5-.65.2.9-2.7.7V7.3" fill="#fff5d9" transform="translate(16.35 7.7)"/><path d="m-7.05 4.05 2.8-.55.25.85-2.9.75-.15-1.05m-2.6.85.45.85-1.7.5-.05-.6 1.15-.75h.15m.75 2.4v.95l-1.65.5-.1-.7 1.75-.75m2.6-.45 2.4-.5.2.65-2.5.55-.1-.7" fill="#ffdf7f" transform="translate(16.35 7.7)"/><path d="M5.9 2.9q.85-.05 1.05-.9L7 .3l.85 3.25L5.9 2.9" fill="#00407a" transform="translate(16.35 7.7)"/><path d="m8.95 4.55 2.65 1.2v.65l-2.75-.75.1-1.1M8.7 7.4l2.4.75V9l-2.4-.75V7.4" fill="#c19a2e" transform="translate(16.35 7.7)"/><path d="m8.95 4.55-.1 1.1L7 5l.1-.85 1.85.4M8.7 7.4v.85l-1.85-.6v-.6l1.85.35" fill="#cea531" transform="translate(16.35 7.7)"/><path d="m2.3-6.5.8.65q.3.3.4 1.2L.35-4.6l-2.9-.5.3-.7.45-.35.1.75L1-5.45q1.85-.2 1.3-1.05" fill="#00396d" transform="translate(16.35 7.7)"/><path d="m-9.25 9.35 1.45-.3-1.7 1.35.25-1.05" fill="#595959" transform="translate(16.35 7.7)"/></g></defs></svg>

<?xml version="1.0" encoding="UTF-8" standalone="no"?>
<svg xmlns:xlink="http://www.w3.org/1999/xlink" height="92.9px" width="100.7px" xmlns="http://www.w3.org/2000/svg">
  <g transform="matrix(1.0, 0.0, 0.0, 1.0, 38.65, 49.75)">
    <use height="22.35" transform="matrix(1.0, 0.0, 0.0, 1.0, -16.35, -7.7)" width="32.3" xlink:href="#shape0"/>
  </g>
  <defs>
    <g id="shape0" transform="matrix(1.0, 0.0, 0.0, 1.0, 16.35, 7.7)">
      <path d="M0.1 5.3 Q6.25 5.3 10.6 7.9 12.8 9.2 13.75 10.5 6.3 8.0 -0.15 8.0 -4.45 8.0 -9.65 9.35 L-14.0 10.65 Q-12.95 9.3 -10.65 8.0 -6.05 5.3 0.1 5.3" fill="#3a322a" fill-rule="evenodd" stroke="none"/>
      <path d="M-9.4 7.65 Q-4.6 5.05 -0.3 5.0 2.75 4.95 6.9 7.2 2.95 6.25 -0.35 6.3 -4.8 6.35 -9.4 7.65 L-10.15 8.05 Q-12.75 9.55 -14.5 11.1 L-14.95 11.5 -15.95 10.1 -16.05 9.7 -15.9 9.35 -15.95 9.1 -16.15 8.95 -16.35 8.35 -16.15 7.55 Q-15.55 7.3 -15.25 6.5 -13.7 1.75 -12.1 -0.45 -8.9 -4.85 -3.25 -5.75 L-2.7 -6.7 Q-1.7 -7.7 0.5 -7.7 3.95 -7.7 4.2 -5.4 9.35 -3.8 11.65 -1.45 14.25 1.2 14.7 6.25 L14.9 6.6 Q15.6 6.75 15.85 7.85 L15.9 8.05 15.7 8.6 15.7 8.75 15.95 9.35 15.95 9.55 Q15.65 11.1 14.2 11.0 L12.75 10.55 Q9.65 8.75 7.35 7.45 L6.9 7.2 Q9.9 7.9 13.25 9.15 L14.2 9.45 14.2 7.9 13.25 7.45 13.2 6.35 Q12.3 -3.35 3.3 -4.3 L2.75 -4.35 2.65 -4.95 Q2.45 -6.2 0.5 -6.2 -1.4 -6.2 -1.65 -5.0 L-1.8 -4.45 -2.4 -4.45 Q-7.5 -2.75 -10.8 1.25 -13.55 4.55 -13.7 7.15 L-13.75 7.6 -14.8 8.2 -14.65 8.45 -14.35 9.4 Q-11.85 8.35 -9.4 7.65" fill="#000000" fill-rule="evenodd" stroke="none"/>
      <path d="M3.45 -4.8 Q3.45 -2.6 0.5 -2.6 -2.45 -2.6 -2.45 -4.8 -2.45 -6.95 0.5 -6.95 3.45 -6.95 3.45 -4.8" fill="#005094" fill-rule="evenodd" stroke="none"/>
      <path d="M-8.9 6.15 Q-9.85 11.25 -13.35 11.9 -13.0 7.05 -8.9 6.15" fill="#000000" fill-rule="evenodd" stroke="none"/>
      <path d="M9.55 5.2 L12.65 7.5 Q15.7 10.45 15.3 13.55 8.95 11.0 9.55 5.2" fill="#000000" fill-rule="evenodd" stroke="none"/>
      <path d="M7.1 5.85 L9.05 7.95 Q10.85 10.45 10.2 12.65 5.95 9.95 7.1 5.85" fill="#000000" fill-rule="evenodd" stroke="none"/>
      <path d="M-4.5 4.2 Q-5.7 10.95 -10.35 11.9 -9.9 5.4 -4.5 4.2" fill="#000000" fill-rule="evenodd" stroke="none"/>
      <path d="M-11.8 0.5 Q-8.05 -5.0 -1.4 -5.15 3.55 -5.25 7.95 -3.0 13.95 0.15 13.95 6.3 L13.95 8.15 Q9.3 6.9 3.5 6.3 -8.15 5.1 -14.05 8.45 L-14.45 7.55 -14.45 7.3 Q-14.35 4.2 -11.8 0.5" fill="#005094" fill-rule="evenodd" stroke="none"/>
      <path d="M10.5 0.15 Q12.25 2.05 12.75 5.55 L11.25 4.4 9.1 3.65 8.85 2.4 6.25 -3.0 10.5 0.15" fill="#00407a" fill-rule="evenodd" stroke="none"/>
      <path d="M0.8 6.3 Q-4.8 6.15 -14.05 8.45 L-14.45 8.05 -14.45 7.95 Q-14.35 6.2 -12.4 4.7 -9.05 2.15 -1.4 2.45 12.85 2.3 13.95 7.5 L13.95 8.35 Q7.8 6.45 0.8 6.3" fill="#00407a" fill-rule="evenodd" stroke="none"/>
      <path d="M-1.6 -2.1 Q-3.0 1.2 -2.65 4.45 L-3.2 4.6 Q-3.7 -1.3 -0.15 -4.75 L-1.6 -2.1" fill="#006aac" fill-rule="evenodd" stroke="none"/>
      <path d="M-5.1 -4.5 Q-3.55 -5.2 -1.75 -5.15 L-0.2 -4.95 Q-6.2 -4.75 -8.1 0.5 -9.05 3.15 -8.8 5.75 L-10.1 6.15 Q-10.05 -2.4 -5.1 -4.5" fill="#006aac" fill-rule="evenodd" stroke="none"/>
      <path d="M0.8 -2.55 L0.1 -5.1 Q2.1 -2.45 2.65 4.9 L1.8 4.35 Q1.55 0.7 0.8 -2.55" fill="#006aac" fill-rule="evenodd" stroke="none"/>
      <path d="M5.2 -4.2 Q9.35 -1.85 9.9 5.45 L8.5 5.5 Q8.55 2.95 7.65 0.35 5.8 -4.9 1.1 -5.15 L2.35 -5.15 Q3.85 -4.95 5.2 -4.2" fill="#006aac" fill-rule="evenodd" stroke="none"/>
      <path d="M-12.8 8.1 Q-12.65 13.25 -15.95 14.65 -16.6 9.8 -12.8 8.1" fill="#000000" fill-rule="evenodd" stroke="none"/>
      <path d="M9.75 4.85 Q13.2 6.15 14.7 7.3 15.0 7.5 15.15 8.05 L14.3 8.6 15.2 9.4 Q15.0 10.3 14.25 10.25 6.6 7.0 -0.3 7.05 -5.05 7.1 -10.4 8.75 L-14.85 10.4 -15.25 9.8 -15.0 9.05 -15.6 8.45 -15.4 7.75 Q-15.3 7.1 -11.15 5.35 -6.05 3.2 -0.8 3.0 4.35 2.8 9.75 4.85" fill="#e8b837" fill-rule="evenodd" stroke="none"/>
      <path d="M0.05 5.85 Q-7.75 5.6 -15.0 9.85 -15.55 9.05 -15.2 8.15 L-9.9 6.15 Q-3.8 4.15 0.2 4.15 6.35 4.15 14.95 8.05 L14.95 9.55 Q8.3 6.1 0.05 5.85" fill="#006aac" fill-rule="evenodd" stroke="none"/>
      <path d="M0.2 4.75 L1.85 4.95 1.85 5.95 0.2 5.85 -6.8 6.45 -7.65 5.75 Q-2.75 4.5 0.2 4.75" fill="#1d7cb6" fill-rule="evenodd" stroke="none"/>
      <path d="M14.95 8.05 L14.95 9.55 Q13.15 8.4 10.45 7.55 L11.15 6.95 14.95 8.05" fill="#1d7cb6" fill-rule="evenodd" stroke="none"/>
      <path d="M-1.15 -5.75 Q-1.3 -6.2 -0.6 -6.45 0.1 -6.7 0.25 -6.2 0.4 -5.75 -0.3 -5.5 -1.0 -5.25 -1.15 -5.75" fill="#006aac" fill-rule="evenodd" stroke="none"/>
      <path d="M-9.65 4.9 L-7.05 4.05 -6.9 5.1 -9.2 5.75 -9.65 4.9" fill="#fff5d9" fill-rule="evenodd" stroke="none"/>
      <path d="M-8.9 7.3 L-6.4 6.65 -6.2 7.55 -8.9 8.25 -8.9 7.3" fill="#fff5d9" fill-rule="evenodd" stroke="none"/>
      <path d="M-7.05 4.05 L-4.25 3.5 -4.0 4.35 -6.9 5.1 -7.05 4.05" fill="#ffdf7f" fill-rule="evenodd" stroke="none"/>
      <path d="M-9.65 4.9 L-9.2 5.75 -10.9 6.25 -10.95 5.65 -9.8 4.9 -9.65 4.9" fill="#ffdf7f" fill-rule="evenodd" stroke="none"/>
      <path d="M-8.9 7.3 L-8.9 8.25 -10.55 8.75 -10.65 8.05 -8.9 7.3" fill="#ffdf7f" fill-rule="evenodd" stroke="none"/>
      <path d="M-6.3 6.85 L-3.9 6.35 -3.7 7.0 -6.2 7.55 -6.3 6.85" fill="#ffdf7f" fill-rule="evenodd" stroke="none"/>
      <path d="M5.9 2.9 Q6.75 2.85 6.95 2.0 L7.0 0.3 7.85 3.55 5.9 2.9" fill="#00407a" fill-rule="evenodd" stroke="none"/>
      <path d="M8.95 4.55 L11.6 5.75 11.6 6.4 8.85 5.65 8.95 4.55" fill="#c19a2e" fill-rule="evenodd" stroke="none"/>
      <path d="M8.7 7.4 L11.1 8.15 11.1 9.0 8.7 8.25 8.7 7.4" fill="#c19a2e" fill-rule="evenodd" stroke="none"/>
      <path d="M8.95 4.55 L8.85 5.65 7.0 5.0 7.1 4.15 8.95 4.55" fill="#cea531" fill-rule="evenodd" stroke="none"/>
      <path d="M8.7 7.4 L8.7 8.25 6.85 7.65 6.85 7.05 8.7 7.4" fill="#cea531" fill-rule="evenodd" stroke="none"/>
      <path d="M2.3 -6.5 L3.1 -5.85 Q3.4 -5.55 3.5 -4.65 L0.35 -4.6 -2.55 -5.1 -2.25 -5.8 -1.8 -6.15 -1.7 -5.4 1.0 -5.45 Q2.85 -5.65 2.3 -6.5" fill="#00396d" fill-rule="evenodd" stroke="none"/>
      <path d="M-9.25 9.35 L-7.8 9.05 -9.5 10.4 -9.25 9.35" fill="#595959" fill-rule="evenodd" stroke="none"/>
    </g>
  </defs>
</svg>
